X: 1
T: Kimi Ga Yo
T: 君が代
T: きみがよ
T: Imperial Reign
O: Trad
S: http://en.wikipedia.org/wiki/Image:Kimigayo.score.png
M: 4/4
L: 1/8
K: Ddor % pentatonic
[| D C (D E ) | (G E) D2 | E G (A G/A/) |
w: き み が よ は ち よ に
w: ki-mi ga_ yo_ wa chi-yo ni__
|  d B  A G   |  E G  A2 | d c d2 | E G A G |
w: や ち よ に さ ざ れ い し の
w: ya-chi-yo ni sa-za-re i-shi no i-wa-o to
|  E> G D2 | A c d2 | (c d) (A G) | (A G/E/) D2 |]
w: い わ お と な り て こ け の む す ま で
w: na-ri-te ko-ke no mu-_su_ ma-__de.
W: May your reign continue for a thousand years,
W: And last for eight thousands of generations,
W: Until pebbles turn into boulders and covered in moss.
